X: 1
T: Jimmy's Favorite
M: 6/8
L: 1/8
R: jig
K: Gmaj
|: gag gdB |GAG GAB|c2c cBA| E3-E2g|
f2f fed|fgf f2e|1 d^cd ed=c |B3 def:|2 d^cd =cAF |G3DEF||
|:G2G GDB,|GDB, GDB,|GGG GAB|c3 cBA|
F2F FED|FGF F2E|DFA cBA |1 GFE DEF:|2 G3 def||
